lib/svgs/caret.svg

<svg xmlns="http://www.w3.org/2000/svg" viewBox="0 0 20 20">
    <path fill="#000" fill-rule="evenodd" d="M2.60108935,4 C2.10666216,4 1.82443303,4.56445825 2.12108935,4.96 L9.62108935,14.96 C9.86108935,15.28 10.3410893,15.28 10.5810893,14.96 L18.0810893,4.96 C18.3777457,4.56445825 18.0955165,4 17.6010893,4 L2.60108935,4 L2.60108935,4 L2.60108935,4 L2.60108935,4 L2.60108935,4 Z M16.4482421,5.19999998 L10.1175224,13.6219107 L3.8250122,5.19999998 L16.4482421,5.19999998 L16.4482421,5.19999998 Z"/>
</svg>

<svg xmlns="http://www.w3.org/2000/svg" viewBox="0 0 20 20">
    <path fill="#000" fill-rule="evenodd" d="M2.601 4a.6.6 0 0 0-.48.96l7.5 10a.6.6 0 0 0 .96 0l7.5-10a.6.6 0 0 0-.48-.96h-15m13.847 1.2l-6.33 8.422L3.825 5.2h12.623"/>
</svg>
